svgs/light/lightbulb-dollar.svg

<svg xmlns="http://www.w3.org/2000/svg" viewBox="0 0 384 512"><!--! Font Awesome Pro 6.3.0 by @fontawesome - https://fontawesome.com License - https://fontawesome.com/license (Commercial License) Copyright 2023 Fonticons, Inc. --><path d="M255.9 415.1H128.1c-8.846 0-15.98 7.18-15.97 16.03l-.077 22.35c.0098 6.27 1.819 12.43 5.294 17.65l17.15 25.71C139.8 505.6 151.7 512 161.2 512h61.68c9.418 0 21.39-6.423 26.61-14.26l17.09-25.7c2.953-4.441 5.353-12.34 5.361-17.67l-.077-22.35C271.8 423.2 264.7 415.1 255.9 415.1zM239.9 454.4l-16.11 24.45C223.3 479.3 222.1 479.1 222.9 480l-60.29 .1172c-.4238-.1016-1.138-.2773-1.423-.2773c-.1406 0-.1348-.2266 0 0l-17.1-25.48l-.0098-6.367h95.94l.0039 5.18C239.9 453.6 239.7 454.4 239.9 454.4C239.9 454.4 239.8 454.5 239.9 454.4zM315.8 51.3c-33.33-33.22-78.19-52.47-124.3-51.28C94.73 .2939 16 79.89 16 177.4c0 42.91 15.47 84.34 43.55 116.6c13.33 15.31 35.84 49.59 43.73 76.02c1.078 8.688 8.844 14.62 17.64 13.71c8.703-.9687 14.98-8.965 14.11-17.65l-.6094-3.312c-10.31-34.97-36-72.84-50.73-89.77C60.67 246.5 48 212.6 48 177.4c0-81.24 63.05-145.1 143.5-145.3H192c38.13 0 74.05 14.88 101.2 41.94C320.8 101.5 336 138.2 336 177.4c0 35.19-12.67 69.15-35.67 95.62c-14.75 16.94-40.44 54.8-50.75 89.77l-.625 3.344c-1.047 8.75 4.938 17.59 13.67 18.68c.7813 .0938 1.531 .1562 2.281 .1562c7.797 0 14.36-5.121 15.36-13.12c8.344-28.25 30.86-62.53 44.2-77.84C352.5 261.7 368 220.3 368 177.4C368 129.7 349.5 84.89 315.8 51.3zM183.5 223.1C177.1 222.2 173.5 221 154.7 214.3c-8.391-2.969-17.48 1.438-20.42 9.781C131.3 232.3 135.7 241.5 144 244.4c8.361 2.992 20.41 7.494 32 9.639V272C176 280.8 183.2 288 192 288s16-7.156 16-16V254.2c22.38-3.826 38.42-16.54 41.89-36.61c6.859-39.75-30.91-50.56-53.48-57.03C177.1 155.3 163.6 151.8 165.6 139.8c1.875-10.94 19.25-13.38 34.81-10.91c5.812 .9062 12.22 2.906 18.3 5.031c8.359 2.844 17.44-1.531 20.36-9.875c2.906-8.344-1.516-17.47-9.859-20.38C220.8 100.8 214 98.98 208 97.86V80c0-8.844-7.16-16-16-16S176 71.16 176 80v17.29C153.5 101.1 137.6 114.2 134.1 134.4C127.3 173.7 165.5 184.9 181.8 189.7c22 6.422 38.77 9.705 36.55 22.5C216.5 223.1 199.1 225.5 183.5 223.1z"/></svg>

<svg xmlns="http://www.w3.org/2000/svg" viewBox="0 0 384 512"><!-- Font Awesome Pro 6.0.0-alpha2 by @fontawesome - https://fontawesome.com License - https://fontawesome.com/license (Commercial License) --><path d="M255.975 415.992H128.025C119.18 415.992 112.012 423.172 112.025 432.02L112.063 454.414C112.072 460.684 113.932 466.813 117.406 472.035L134.502 497.719C139.727 505.574 151.723 512 161.156 512H222.875C232.293 512 244.266 505.586 249.482 497.746L266.551 472.102C269.504 467.66 271.93 459.664 271.937 454.336L271.975 432.02C271.988 423.172 264.82 415.992 255.975 415.992ZM239.91 454.375L223.742 478.883C223.266 479.32 222.057 479.969 222.875 480L162.588 480.117C162.164 480.016 161.475 479.688 161.189 479.688C161.049 479.688 161.006 479.766 161.141 479.992L144.062 454.359L144.053 447.992H239.99L239.994 453.172C239.93 453.617 239.678 454.484 239.795 454.484C239.816 454.484 239.854 454.453 239.91 454.375ZM315.781 51.297C282.453 18.078 237.563 -1.137 191.438 0.051C94.703 0.332 16 79.887 16 177.375C16 220.281 31.469 261.711 59.547 293.992C72.875 309.301 95.391 343.578 103.281 370.016C104.359 378.703 112.125 384.637 120.922 383.73C129.625 382.762 135.906 374.766 135.031 366.078L134.422 362.766C124.109 327.797 98.422 289.93 83.687 272.992C60.672 246.527 48 212.562 48 177.375C48 96.133 111.047 32.297 191.531 32.047H192C230.125 32.047 266.047 46.922 293.188 73.984C320.797 101.477 336 138.227 336 177.375C336 212.563 323.328 246.527 300.328 272.992C285.578 289.93 259.891 327.797 249.578 362.766L248.953 366.109C247.906 374.859 253.891 383.699 262.625 384.793C263.406 384.887 264.156 384.949 264.906 384.949C272.703 384.949 279.266 379.828 280.266 371.828C288.609 343.578 311.125 309.301 324.469 293.992C352.531 261.711 368 220.281 368 177.375C368 129.664 349.453 84.887 315.781 51.297ZM183.516 223.094C177.988 222.244 173.525 221.002 154.656 214.25C146.266 211.281 137.172 215.688 134.234 224.031C131.297 232.344 135.672 241.5 144 244.438C152.361 247.43 164.412 251.932 176 254.076V272C176 280.844 183.156 288 192 288S208 280.844 208 272V254.232C230.383 250.406 246.416 237.689 249.891 217.625C256.75 177.875 218.984 167.063 196.406 160.594C177.98 155.328 163.58 151.777 165.641 139.812C167.516 128.875 184.891 126.437 200.453 128.906C206.266 129.812 212.672 131.812 218.75 133.938C227.109 136.781 236.187 132.406 239.109 124.062C242.016 115.719 237.594 106.594 229.25 103.687C220.775 100.754 214.045 98.979 208 97.859V80C208 71.156 200.844 64 192 64S176 71.156 176 80V97.289C153.455 101.053 137.596 114.197 134.109 134.375C127.312 173.719 165.516 184.906 181.812 189.688C203.812 196.109 220.58 199.393 218.359 212.188C216.484 223.125 199.062 225.531 183.516 223.094Z"/></svg>
